Sweet-Rainbow/icons/krita.svg

<?xml version="1.0" encoding="UTF-8" standalone="no"?>
<!-- Generator: Gravit.io -->

<svg
   xmlns:dc="http://purl.org/dc/elements/1.1/"
   xmlns:cc="http://creativecommons.org/ns#"
   xmlns:rdf="http://www.w3.org/1999/02/22-rdf-syntax-ns#"
   xmlns:svg="http://www.w3.org/2000/svg"
   xmlns="http://www.w3.org/2000/svg"
   xmlns:sodipodi="http://sodipodi.sourceforge.net/DTD/sodipodi-0.dtd"
   xmlns:inkscape="http://www.inkscape.org/namespaces/inkscape"
   style="isolation:isolate"
   viewBox="0 0 36 36"
   width="48"
   height="48"
   version="1.1"
   id="svg18"
   sodipodi:docname="krita.svg"
   inkscape:version="0.92.4 (5da689c313, 2019-01-14)">
  <metadata
     id="metadata24">
    <rdf:RDF>
      <cc:Work
         rdf:about="">
        <dc:format>image/svg+xml</dc:format>
        <dc:type
           rdf:resource="http://purl.org/dc/dcmitype/StillImage" />
        <dc:title></dc:title>
      </cc:Work>
    </rdf:RDF>
  </metadata>
  <defs
     id="defs22" />
  <sodipodi:namedview
     pagecolor="#ffffff"
     bordercolor="#666666"
     borderopacity="1"
     objecttolerance="10"
     gridtolerance="10"
     guidetolerance="10"
     inkscape:pageopacity="0"
     inkscape:pageshadow="2"
     inkscape:window-width="640"
     inkscape:window-height="480"
     id="namedview20"
     showgrid="false"
     inkscape:zoom="29.365243"
     inkscape:cx="25.325443"
     inkscape:cy="32"
     inkscape:current-layer="svg18"
     units="px" />
  <linearGradient
     id="_lgradient_19"
     x1="0"
     y1="0.5"
     x2="1"
     y2="0.5"
     gradientTransform="matrix(7.757,1.514,-1.366,6.998,23.815,24.225)"
     gradientUnits="userSpaceOnUse">
    <stop
       offset="0%"
       stop-opacity="1"
       style="stop-color:rgb(117,127,154)"
       id="stop2" />
    <stop
       offset="98.69565217391305%"
       stop-opacity="1"
       style="stop-color:rgb(215,221,232)"
       id="stop4" />
  </linearGradient>
  <linearGradient
     id="_lgradient_20"
     x1="0"
     y1="0.5"
     x2="1"
     y2="0.5"
     gradientTransform="matrix(47.994,0,0,47.994,0.003,0.003)"
     gradientUnits="userSpaceOnUse">
    <stop
       offset="2.608695652173913%"
       stop-opacity="1"
       style="stop-color:rgb(198,255,221)"
       id="stop9" />
    <stop
       offset="51.73913043478261%"
       stop-opacity="1"
       style="stop-color:rgb(251,215,134)"
       id="stop11" />
    <stop
       offset="99.1304347826087%"
       stop-opacity="1"
       style="stop-color:rgb(247,121,125)"
       id="stop13" />
  </linearGradient>
  <g
     id="g836"
     transform="matrix(0.75009808,0,0,0.75009808,-0.00217378,-0.00235392)">
    <path
       id="path7"
       d="m 29.954,32.032 c -1.031,0.241 -0.989,0.57 -1.804,0.272 -0.562,-0.205 -4.856,-4.93 -4.856,-4.93 -0.137,-0.651 0.33,-1.418 1.031,-1.959 0.667,-0.583 1.516,-0.9 2.143,-0.652 0,0 3.972,4.992 4.077,5.572 0.154,0.841 -0.167,0.742 -0.591,1.697 z"
       style="fill:url(#_lgradient_19)"
       inkscape:connector-curvature="0" />
    <path
       id="path16"
       d="M 25.932,27.541 C 22.427,29.697 17.558,24.241 15.678,21.044 13.744,17.756 6.324,6.492 5.766,5.746 5.209,5.001 4.817,4.138 5.563,3.501 6.33,2.889 7.121,3.422 7.766,4.096 8.41,4.769 18.331,13.97 21.267,16.43 c 2.856,2.392 7.435,8.087 4.665,11.111 z m 2.971,12.737 c 3.948,-1.28 5.579,-4.58 4.665,-7.372 -0.711,-2.171 -2.434,-2.891 -3.858,-2.187 -1.413,0.699 -1.74,1.796 -1.59,2.979 0.306,2.411 3.09,4.605 0.783,6.58 z M 15.662,5.819 v 0 c -1.003,0.459 -2.19,0.018 -2.649,-0.985 v 0 C 12.554,3.831 12.995,2.644 13.998,2.185 v 0 c 2.295,-1.058 4.743,-1.74 7.247,-2.026 8.296,-0.948 16.519,2.48 21.659,9.059 2.722,3.473 4.437,7.646 4.937,12.027 0.948,8.296 -2.48,16.519 -9.059,21.659 -3.473,2.722 -7.636,4.436 -12.027,4.937 C 18.459,48.789 10.236,45.361 5.096,38.782 2.374,35.309 0.66,31.146 0.159,26.755 -0.482,21.151 0.864,15.492 3.959,10.78 v 0 C 4.571,9.86 5.816,9.605 6.738,10.211 v 0 c 0.922,0.606 1.174,1.849 0.563,2.774 v 0 c -2.58,3.928 -3.703,8.636 -3.168,13.316 0.416,3.646 1.84,7.117 4.114,10.017 4.29,5.479 11.139,8.34 18.054,7.549 3.656,-0.418 7.117,-1.84 10.017,-4.114 5.479,-4.29 8.34,-11.139 7.549,-18.054 C 43.451,18.053 42.027,14.582 39.753,11.682 35.463,6.203 28.614,3.342 21.699,4.133 19.613,4.371 17.574,4.936 15.662,5.819 Z"
       style="fill:url(#_lgradient_20);fill-rule:evenodd"
       inkscape:connector-curvature="0" />
  </g>
</svg>

<?xml version="1.0" encoding="UTF-8" standalone="no"?><!-- Generator: Gravit.io --><svg xmlns="http://www.w3.org/2000/svg" xmlns:xlink="http://www.w3.org/1999/xlink" style="isolation:isolate" viewBox="0 0 48 48" width="48pt" height="48pt"><linearGradient id="_lgradient_19" x1="0" y1="0.5" x2="1" y2="0.5" gradientTransform="matrix(7.757,1.514,-1.366,6.998,23.815,24.225)" gradientUnits="userSpaceOnUse"><stop offset="0%" stop-opacity="1" style="stop-color:rgb(117,127,154)"/><stop offset="98.69565217391305%" stop-opacity="1" style="stop-color:rgb(215,221,232)"/></linearGradient><path d=" M 29.954 32.032 C 28.923 32.273 28.965 32.602 28.15 32.304 C 27.588 32.099 23.294 27.374 23.294 27.374 C 23.157 26.723 23.624 25.956 24.325 25.415 C 24.992 24.832 25.841 24.515 26.468 24.763 C 26.468 24.763 30.44 29.755 30.545 30.335 C 30.699 31.176 30.378 31.077 29.954 32.032 Z " fill="url(#_lgradient_19)"/><linearGradient id="_lgradient_20" x1="0" y1="0.5" x2="1" y2="0.5" gradientTransform="matrix(47.994,0,0,47.994,0.003,0.003)" gradientUnits="userSpaceOnUse"><stop offset="2.608695652173913%" stop-opacity="1" style="stop-color:rgb(198,255,221)"/><stop offset="51.73913043478261%" stop-opacity="1" style="stop-color:rgb(251,215,134)"/><stop offset="99.1304347826087%" stop-opacity="1" style="stop-color:rgb(247,121,125)"/></linearGradient><path d=" M 25.932 27.541 C 22.427 29.697 17.558 24.241 15.678 21.044 C 13.744 17.756 6.324 6.492 5.766 5.746 C 5.209 5.001 4.817 4.138 5.563 3.501 C 6.33 2.889 7.121 3.422 7.766 4.096 C 8.41 4.769 18.331 13.97 21.267 16.43 C 24.123 18.822 28.702 24.517 25.932 27.541 L 25.932 27.541 Z  M 28.903 40.278 C 32.851 38.998 34.482 35.698 33.568 32.906 C 32.857 30.735 31.134 30.015 29.71 30.719 C 28.297 31.418 27.97 32.515 28.12 33.698 C 28.426 36.109 31.21 38.303 28.903 40.278 L 28.903 40.278 Z  M 15.662 5.819 L 15.662 5.819 C 14.659 6.278 13.472 5.837 13.013 4.834 L 13.013 4.834 C 12.554 3.831 12.995 2.644 13.998 2.185 L 13.998 2.185 C 16.293 1.127 18.741 0.445 21.245 0.159 C 29.541 -0.789 37.764 2.639 42.904 9.218 C 45.626 12.691 47.341 16.864 47.841 21.245 C 48.789 29.541 45.361 37.764 38.782 42.904 C 35.309 45.626 31.146 47.34 26.755 47.841 C 18.459 48.789 10.236 45.361 5.096 38.782 C 2.374 35.309 0.66 31.146 0.159 26.755 C -0.482 21.151 0.864 15.492 3.959 10.78 L 3.959 10.78 C 4.571 9.86 5.816 9.605 6.738 10.211 L 6.738 10.211 C 7.66 10.817 7.912 12.06 7.301 12.985 L 7.301 12.985 C 4.721 16.913 3.598 21.621 4.133 26.301 C 4.549 29.947 5.973 33.418 8.247 36.318 C 12.537 41.797 19.386 44.658 26.301 43.867 C 29.957 43.449 33.418 42.027 36.318 39.753 C 41.797 35.463 44.658 28.614 43.867 21.699 C 43.451 18.053 42.027 14.582 39.753 11.682 C 35.463 6.203 28.614 3.342 21.699 4.133 C 19.613 4.371 17.574 4.936 15.662 5.819 Z " fill-rule="evenodd" fill="url(#_lgradient_20)"/></svg>
